packages/icons/svg/User_Contact_Website_64px.svg

<svg xmlns="http://www.w3.org/2000/svg" viewBox="0 0 64 64"><path d="M32 5a27 27 0 1027 27A27 27 0 0032 5zm24 25.5h-7a32.33 32.33 0 00-3.18-12.58 31.37 31.37 0 003.88-2.16A23.89 23.89 0 0156 30.5zM33.74 55.93h-.24v-9.87a29.43 29.43 0 018 1.53 29.71 29.71 0 01-7.76 8.34zm10.62-7.2a28.2 28.2 0 013.07 1.63 23.86 23.86 0 01-7.69 4.35 33.29 33.29 0 004.62-5.98zm-21.89-1.15a29.72 29.72 0 018-1.52V56h-.24a29.47 29.47 0 01-7.76-8.42zm1.79 7.13a23.86 23.86 0 01-7.69-4.35 30.13 30.13 0 013.07-1.64 33 33 0 004.62 5.99zm6-46.64h.24v9.89a29.72 29.72 0 01-8-1.52 29.62 29.62 0 017.76-8.37zm-10.62 7.21a30.13 30.13 0 01-3.07-1.64 23.86 23.86 0 017.69-4.35 33 33 0 00-4.62 5.99zm21.89 1.13a29.43 29.43 0 01-8 1.53V8.05h.24a29.71 29.71 0 017.76 8.36zm-1.79-7.12a23.86 23.86 0 017.69 4.35 28.2 28.2 0 01-3.07 1.63 33.29 33.29 0 00-4.62-5.98zM30.5 20.94v9.56H18.05A29.52 29.52 0 0121 19.07a32.44 32.44 0 009.5 1.87zm0 12.56v9.56a32.44 32.44 0 00-9.5 1.87 29.52 29.52 0 01-2.95-11.43zm3 9.56V33.5H46a29.36 29.36 0 01-3 11.43 32.38 32.38 0 00-9.5-1.87zm0-12.56v-9.56a32.51 32.51 0 009.5-1.87 29.52 29.52 0 013 11.43zM14.34 15.76a32.32 32.32 0 003.89 2.17 32.24 32.24 0 00-3.18 12.57h-7a24 24 0 016.29-14.74zM8.05 33.5h7a32.24 32.24 0 003.18 12.57 32.32 32.32 0 00-3.89 2.17A24 24 0 018.05 33.5zm41.6 14.74a31.37 31.37 0 00-3.88-2.16A32.33 32.33 0 0049 33.5h7a23.89 23.89 0 01-6.35 14.74z"/></svg>

<svg xmlns="http://www.w3.org/2000/svg" viewBox="0 0 64 64"><defs></defs><g id="Icon"><path  d="M32,5A27,27,0,1,0,59,32,27,27,0,0,0,32,5ZM56,30.5H49a32.33,32.33,0,0,0-3.18-12.58,31.37,31.37,0,0,0,3.88-2.16A23.89,23.89,0,0,1,56,30.5ZM33.74,55.93l-.24,0V46.06a29.43,29.43,0,0,1,8,1.53A29.71,29.71,0,0,1,33.74,55.93Zm10.62-7.2a28.2,28.2,0,0,1,3.07,1.63,23.86,23.86,0,0,1-7.69,4.35A33.29,33.29,0,0,0,44.36,48.73ZM22.47,47.58a29.72,29.72,0,0,1,8-1.52V56l-.24,0A29.47,29.47,0,0,1,22.47,47.58Zm1.79,7.13a23.86,23.86,0,0,1-7.69-4.35,30.13,30.13,0,0,1,3.07-1.64A33,33,0,0,0,24.26,54.71Zm6-46.64.24,0v9.89a29.72,29.72,0,0,1-8-1.52A29.62,29.62,0,0,1,30.26,8.07ZM19.64,15.28a30.13,30.13,0,0,1-3.07-1.64,23.86,23.86,0,0,1,7.69-4.35A33,33,0,0,0,19.64,15.28Zm21.89,1.13a29.43,29.43,0,0,1-8,1.53V8.05l.24,0A29.71,29.71,0,0,1,41.53,16.41ZM39.74,9.29a23.86,23.86,0,0,1,7.69,4.35,28.2,28.2,0,0,1-3.07,1.63A33.29,33.29,0,0,0,39.74,9.29ZM30.5,20.94V30.5H18.05A29.52,29.52,0,0,1,21,19.07,32.44,32.44,0,0,0,30.5,20.94Zm0,12.56v9.56A32.44,32.44,0,0,0,21,44.93,29.52,29.52,0,0,1,18.05,33.5Zm3,9.56V33.5H46a29.36,29.36,0,0,1-3,11.43A32.38,32.38,0,0,0,33.5,43.06Zm0-12.56V20.94A32.51,32.51,0,0,0,43,19.07,29.52,29.52,0,0,1,46,30.5ZM14.34,15.76a32.32,32.32,0,0,0,3.89,2.17A32.24,32.24,0,0,0,15.05,30.5h-7A24,24,0,0,1,14.34,15.76ZM8.05,33.5h7a32.24,32.24,0,0,0,3.18,12.57,32.32,32.32,0,0,0-3.89,2.17A24,24,0,0,1,8.05,33.5Zm41.6,14.74a31.37,31.37,0,0,0-3.88-2.16A32.33,32.33,0,0,0,49,33.5h7A23.89,23.89,0,0,1,49.65,48.24Z"/></g></svg>
